X:1
T:Title
%%score ( 1 2 ) { 3 | 4 }
L:1/8
Q:1/4=78
M:3/8
K:D
V:1 treble nm="Bright Piano"
V:2 treble 
V:3 bass nm="Bright Piano"
V:4 bass 
V:1
 [DA]2 [CG] | [DF]2 [CE] | z F[DA] | BA[CA] | [Ec]2 [CB] | [DA]2 [FA] | [GB][FA][EG] | [DF]2 z | %8
w: Wilhelm~Brockhaus *||||||||
 [DA]2 [CG] | [DF]2 [EG] | F-[Fd][Ac] | [Gc]2 [GB] | [FA]2 [FA] | [GB]2 [GA] | E z z | D2 z | %16
w: ||||||||
 A,2 A, | C2 E | G z z | [CG]2 [CE] | A,2 A, | D2 F | BAD | [CE]2 z | [DA]2 [CG] | [DF]2 [EG] | %26
w: ||||||||||
 F-[Fd][Ac] | edc/B/ | cB[EG] | BA[DF] | F z z | D2 z |] %32
w: ||||||
V:2
 x3 | x3 | D2 z | C2 z | x3 | x3 | x3 | x3 | x3 | x3 | A z z | x3 | x3 | x3 | C-[CF][CE] | x3 | %16
 x3 | x3 | C-[CB][CA] | x3 | x3 | x3 | D2 z | x3 | x3 | x3 | A z z | G2 G | G2 z | F2 z | %30
 D-[DG][CE] | x3 |] %32
V:3
 F,2 A, | A,2 G, | F,A,F, | G,2 G, | A,2 G, | F,2 D | C2 C | A,2 z | F,2 A, | A,2 A, | %10
 D2[K:treble] D | D2 D | D2 D | C2[K:bass] C | G,A,G, | F,2 z | A,,2 A,, | C,2 E, | E,2 E, | %19
 E,2 E, | A,,2 A,, | D,2 F, | G,F,^G, | A,2 z | F,2 A, | A,2 A, | D2 D | B,2 B, | A,2 C | D2 A, | %30
 A,2 A, | F,2 z |] %32
V:4
 D,2 A,, | D,2 A,, | D,2 D, | E,2 E, | A,,2 E, | D,2 D, | A,,2 A,, | D,2 z | D,2 A,, | D,2 D, | %10
 D,2 F, | G,2 G, | A,2 A, | A,,2 A,, | A,,2 A,, | D,2 z | z3 | z3 | A,,2 A,, | A,,2 A,, | z3 | z3 | %22
 D,2 B,, | A,,2 z | D,2 E, | D,2 D, | D,2 D, | G,2 G, | z z A, | D,2 D, | A,,2 A,, | D,2 z |] %32

